!!!OTL: Der Markgraf von Backenweil Nun hoeret an und schweiget still,
!!!ARE: Europa, Mitteleuropa, Deutschland / France, Lothringen, Kreis
!!    Saargemuend, Gebenhausen
!!!YOR: 1, S. 133
!!    1913 aufgezeichnet  (vom Hg. veraenderte Fassung)
!!!SCT: Q0013B
!!!YEM: Copyright 1995, estate of Helmut Schaffrath.
**kern
*ICvox
*Ivox
*M4/4
*k[b-]
*F:
{4c
=1
4f
4e
4f
8g
8a
=2
4b-
4a
4g}
{8a
8g
=3
4f
4c
8f
8f
8g
8a
=4
4b-
4a
4g}
{8.cc
16b-
=5
4a
4g
8f
8f
8g
8b-
=6
4a
4g
4f}
{8g
8f
=7
4e
4d
8.c
16d
8c
8c
=8
8f
8g
8a
8f
4g}
{8.cc
16b-
=9
4a
4g
8f
8f
8g
8b-
=10
4a
4g
4f}
==
!!!AGN: Ballade, Krieg, Gefangenschaft, Ehe, Heimkehr
!! (kuenstlich) metrisierte Fassung von Q0013.
!!!ONB: ESAC (Essen Associative Code) Database: BALLADE
!!!AMT: simple quadruple
!!!AIN: vox
!!!EED: Helmut Schaffrath
!!!EEV: 1.0
*-
